ui/public/images/landing-cards/alarm-warning.svg

<svg width="17" height="16" viewBox="0 0 17 16" fill="none" xmlns="http://www.w3.org/2000/svg">
<g clip-path="url(#clip0_11778_289491)">
<path d="M3.50072 13.3335V9.3335C3.50072 7.91901 4.06262 6.56245 5.06282 5.56226C6.06301 4.56207 7.41957 4.00016 8.83405 4.00016C10.2485 4.00016 11.6051 4.56207 12.6053 5.56226C13.6055 6.56245 14.1674 7.91901 14.1674 9.3335V13.3335H14.8341V14.6668H2.83405V13.3335H3.50072ZM4.83405 9.3335H6.16739C6.16739 8.62625 6.44834 7.94798 6.94844 7.44788C7.44853 6.94778 8.12681 6.66683 8.83405 6.66683V5.3335C7.77319 5.3335 6.75577 5.75492 6.00563 6.50507C5.25548 7.25521 4.83405 8.27263 4.83405 9.3335ZM8.16739 1.3335H9.50072V3.3335H8.16739V1.3335ZM14.0194 3.2055L14.9621 4.14816L13.5487 5.56216L12.6054 4.6195L14.0194 3.2055ZM2.70605 4.14816L3.64872 3.2055L5.06272 4.61883L4.12072 5.56283L2.70605 4.14816Z" fill="#161616"/>
</g>
<defs>
<clipPath id="clip0_11778_289491">
<rect width="16" height="16" fill="white" transform="translate(0.833984)"/>
</clipPath>
</defs>
</svg>

<svg width="17" height="16" fill="none" xmlns="http://www.w3.org/2000/svg"><g clip-path="url(#a)"><path d="M3.5 13.334v-4a5.333 5.333 0 1 1 10.667 0v4h.667v1.333h-12v-1.333h.667zm1.334-4h1.333a2.667 2.667 0 0 1 2.667-2.667V5.334a4 4 0 0 0-4 4zm3.333-8h1.334v2H8.167v-2zm5.852 1.871.943.943-1.413 1.414-.944-.942 1.414-1.415zm-11.313.943.943-.942 1.414 1.413-.942.944-1.415-1.415z" fill="#161616"/></g><defs><clipPath id="a"><path fill="#fff" transform="translate(.834)" d="M0 0h16v16H0z"/></clipPath></defs></svg>
